X: 22503
T: Lady Douglas's
R: reel
M: 4/4
K: Gmajor
G2 B>d g2 d>B|g2 d>B c>A A2|G2 B>d g2 d>B|
c>ed>c B>G G2:|g>fg>e f>ga>f|g>fg>a b>ee>f|
g>fg>e f>ga>f|g>e d>c B>G G2|g>fg>e f>ga>f|
g>fg>a b>ee>f|g>d b>f g>de>c|B>d A>c B>G G2||

